X: 3417
T: Besom In Bloom, The
R: jig
M: 6/8
K: Dmixolydian
|:FED ~F2D|GEA D3|FED FGA|GFG AGE|
FED F2G|AFA ~f2e|ded cAF|1 AGF ~G2G:|2 AGF G2A||
|:~B2B BAG|ABG A2 G|FED FGA|GEA ~D2D|
B2B BAG|ABG ABc|ded cAF|ABA G3:|

